X: 32310
T: Pigeon On The Gate, The
R: reel
M: 4/4
K: Edorian
dc|:BE ~E2 BEdE|BE Ec dBAF|D2 (3FED ADFE|DEFA BAFA|
BE ~E2 BEdE|BE Ec dBAF|D2 FA dfec|dBAF EFGA:|
|:Beed efed|(3Bcd ef gfed|Addc dedB|AF ~F2 DEFA|
Beed efed|(3Bcd ef g2 fg|(3agf ge fd ec|dBAF EFGA:|

